X:1
T:Title
%%score 1 2
L:1/8
Q:1/4=75
M:6/8
K:Db
V:1 treble nm="Strings 1, Soprano"
V:2 bass nm="Strings 1, Bass"
V:1
 [FA][Fd][GB] [FA]2 D | [DF]3 [CE]3 | DDD [CE]2 D | [DF]6 | [DF][DF][EF] [DB]2 [DF] | [Dd]3 [Ec]3 | %6
w: 1.~Child~ of~ God's~ bound less~|mer cy,~|Child~ of~ His~ ten der~|love,~|Is~ He~ not~ true~ for|ev er?~|
 [DB][DF][DF] [D=G]2 [DE] | [CA]6 | [FA][Fd][GB] [FA]2 D | [DF]3 [CE]3 | DDD [CE]2 D | [CF]6 | %12
w: Will~ He~ not~ faith ful~|prove?~|Hid den~ may~ be~ His~|pur pose,~|When~ thou~ dost~ weap~ and~|pray;~|
 [CE][CE][CE] D2 [Fd] | [Fd]3 [FA]3 | [DF]D[DG] [DF]2 [CE] | D6 | [Fd][Fd][Fd] [FA]2 [Fd] | %17
w: Si lence~ may~ be~ the~|an swer,~|He~ may~ seem~ far~ a|way;~|Si lence~ may~ be~ the~|
 [Af]3 [Fd]3[Q:1/4=12] | %18
w: an swer,~|
[Q:1/4=75] [DA][DA][DA] [GA]2 [GA][Q:1/4=74][Q:1/4=73][Q:1/4=72][Q:1/4=71][Q:1/4=69][Q:1/4=68][Q:1/4=67][Q:1/4=66][Q:1/4=65][Q:1/4=64][Q:1/4=63][Q:1/4=62][Q:1/4=61][Q:1/4=59][Q:1/4=58][Q:1/4=57][Q:1/4=56] | %19
w: He~ may~ seem~ far~ a|
 [FA]6 |] %20
w: way.~|
V:2
 [D,A,][D,A,][D,D] [D,D]2 [D,F,] | [A,,A,]3 [A,,G,]3 | [B,,F,][B,,F,][B,,F,] [A,,G,]2 [D,F,] | %3
 [D,A,]6 | [D,A,][D,A,][C,=A,] [B,,B,]2 [B,,B,] | [F,B,]3 [F,=A,]3 | %6
 [B,,B,][B,,B,][B,,B,] [E,B,]2 [E,=G,] | [A,,A,]6 | [D,A,][D,A,][D,D] [D,D]2 [D,F,] | %9
 [A,,A,]3 [A,,G,]3 | [B,,F,][B,,F,][B,,F,] [G,,B,]2 [G,,B,] | [F,,=A,]6 | %12
 [A,,A,][A,,A,][A,,A,] [D,F,]2 [D,A,] | [D,A,]3 [D,D]3 | [D,A,][D,F,][G,,B,] [A,,A,]2 [A,,G,] | %15
 [D,F,]6 | [D,A,][D,A,][D,A,] [D,D]2 [D,D] | [D,D]3 [D,A,]3 | [F,A,][F,A,][F,A,] [E,C]2 [A,,C] | %19
 [D,D]6 |] %20

